u2u-testnet/logo.svg

<svg width="1085" height="120" viewBox="0 0 1085 120" fill="none" xmlns="http://www.w3.org/2000/svg">
<g clip-path="url(#clip0_7685_9370)">
<path d="M43.5124 120C28.9005 111.575 14.6899 103.382 0.147084 94.9969C3.53716 93.8185 4.07309 91.4856 4.06118 88.5701C3.98318 69.4648 4.00044 50.3595 4.04689 31.2542C4.05344 28.4959 3.64196 26.1404 0 25.0734C6.64319 21.2446 12.7808 17.7077 19.477 13.8485C19.477 16.1183 19.477 17.7154 19.477 19.3126C19.4931 42.1734 19.4931 65.0647 19.4931 87.9094C19.4681 91.3969 20.3863 93.2133 23.5162 94.9617C26.0446 96.3748 26.4239 96.5053 28.358 97.5901C28.358 96.0216 28.3687 95.066 28.358 93.9567C28.358 66.6577 28.4116 39.7452 28.358 11.935C28.3515 9.62354 28.8779 8.21343 31.0043 7.11311C35.1274 4.98037 39.091 2.53903 43.5124 0V120Z" fill="#33CC99"/>
<path d="M53.0908 120C67.7033 111.575 81.9133 103.382 96.4562 94.9969C93.0661 93.8185 92.5302 91.4856 92.5421 88.5701C92.6201 69.4648 92.6028 50.3595 92.5564 31.2542C92.5498 28.4959 92.9613 26.1404 96.6032 25.0734C89.9601 21.2446 83.8224 17.7077 77.1262 13.8485C77.1262 16.1183 77.1262 17.7154 77.1262 19.3126C77.1102 42.1734 77.1102 65.0647 77.1102 87.9094C77.1352 91.3969 76.2169 93.2133 73.0871 94.9617C70.5587 96.3748 70.1794 96.5053 68.2452 97.5901C68.2452 96.0216 68.2345 95.066 68.2452 93.9567C68.2452 66.6577 68.1916 39.7452 68.2452 11.935C68.2518 9.62354 67.7254 8.21343 65.5989 7.11311C61.4758 4.98037 57.5123 2.53903 53.0908 0V120Z" fill="url(#paint0_linear_7685_9370)"/>
<path d="M60.6589 8.45605L62.3602 11.9048L66.1642 12.4576L63.4118 15.142L64.0615 18.9321L60.6589 17.1425L57.2569 18.9321L57.9066 15.142L55.1543 12.4576L58.9582 11.9048L60.6589 8.45605Z" fill="white"/>
</g>
<path d="M180.223 106L146.414 51.9766L146.121 52.0938L146.766 106H125.027V17.1719H144.598L178.934 73.0117L179.168 72.7773L178.172 17.1719H199.91V106H180.223ZM281.707 73.4805C281.707 75.3945 281.551 77.1523 281.238 78.7539H231.316C232.566 87.1523 237.762 91.3516 246.902 91.3516C251.668 91.3516 255.711 89.2812 259.031 85.1406H279.422C276.453 92.0547 272.195 97.5625 266.648 101.664C260.75 106 254.168 108.168 246.902 108.168C237.176 108.168 228.875 104.711 222 97.7969C215.086 90.9219 211.629 82.6211 211.629 72.8945C211.629 63.1289 215.008 54.75 221.766 47.7578C228.602 40.6484 236.863 37.0938 246.551 37.0938C256.629 37.0938 265.047 40.6484 271.805 47.7578C278.406 54.75 281.707 63.3242 281.707 73.4805ZM261.785 65.3359C260.145 57.7188 255.105 53.9102 246.668 53.9102C238.23 53.9102 233.191 57.7188 231.551 65.3359H261.785ZM364.793 72.3086C364.793 82.582 361.785 91.0781 355.77 97.7969C349.52 104.789 341.316 108.285 331.16 108.285C327.371 108.285 323.777 107.543 320.379 106.059C316.473 104.34 313.719 101.957 312.117 98.9102H311.883V106H292.781V17.1719H312.703V44.6523C317.43 39.6133 323.875 37.0938 332.039 37.0938C336.688 37.0938 341.355 38.1875 346.043 40.375C352.293 43.2656 357.02 47.6016 360.223 53.3828C363.27 58.8125 364.793 65.1211 364.793 72.3086ZM344.871 72.6602C344.871 68.0117 343.309 64.0469 340.184 60.7656C337.02 57.4062 333.133 55.7266 328.523 55.7266C323.836 55.7266 319.891 57.3477 316.688 60.5898C313.562 63.832 312 67.8164 312 72.543C312 77.3477 313.484 81.3906 316.453 84.6719C319.5 87.9922 323.406 89.6523 328.172 89.6523C332.938 89.6523 336.922 88.0117 340.125 84.7305C343.289 81.4492 344.871 77.4258 344.871 72.6602ZM418.816 106V98.9102H418.582C416.941 102.309 414.559 104.75 411.434 106.234C408.738 107.523 405.359 108.168 401.297 108.168C392.82 108.168 386.297 105.375 381.727 99.7891C379.227 96.6641 377.566 93.4219 376.746 90.0625C376.082 87.5234 375.75 83.9102 375.75 79.2227V39.3789H395.672V76.2344C395.672 80.5312 396.336 83.6953 397.664 85.7266C399.305 88.2656 402.195 89.5352 406.336 89.5352C413.953 89.5352 417.762 85.0234 417.762 76V39.3789H437.684V106H418.816ZM452.039 106V17.1719H471.961V106H452.039ZM536.414 106V98.793H536.18C534.5 101.996 531.707 104.438 527.801 106.117C524.441 107.562 520.75 108.285 516.727 108.285C506.688 108.285 498.543 104.828 492.293 97.9141C486.277 91.1953 483.27 82.7773 483.27 72.6602C483.27 62.6992 486.336 54.3398 492.469 47.582C498.836 40.5898 506.922 37.0938 516.727 37.0938C520.711 37.0938 524.383 37.8359 527.742 39.3203C531.492 40.9609 534.305 43.3438 536.18 46.4688H536.414V39.3789H556.336V106H536.414ZM536.414 72.6602C536.414 67.7773 534.832 63.7344 531.668 60.5312C528.504 57.3281 524.5 55.7266 519.656 55.7266C514.852 55.7266 510.887 57.4062 507.762 60.7656C504.715 64.0078 503.191 68.0508 503.191 72.8945C503.191 77.543 504.773 81.4883 507.938 84.7305C511.18 88.0117 515.125 89.6523 519.773 89.6523C524.578 89.6523 528.562 88.0312 531.727 84.7891C534.852 81.5469 536.414 77.5039 536.414 72.6602ZM620.848 85.6094C620.848 92.6797 618.016 98.3242 612.352 102.543C607.234 106.371 601.023 108.285 593.719 108.285C586.453 108.285 580.379 106.43 575.496 102.719C570.301 98.7734 567.332 93.2656 566.59 86.1953H586.395C586.98 90.2969 589.5 92.3477 593.953 92.3477C595.672 92.3477 597.215 91.918 598.582 91.0586C600.145 90.082 600.926 88.7734 600.926 87.1328C600.926 85.0625 599.871 83.3633 597.762 82.0352L594.832 80.6289L583.289 76.4688C578.641 74.7891 575.008 72.6992 572.391 70.1992C569.07 67.0742 567.41 63.3633 567.41 59.0664C567.41 52.4648 570.105 47.0742 575.496 42.8945C580.457 39.0273 586.375 37.0938 593.25 37.0938C600.242 37.0938 606.004 38.832 610.535 42.3086C615.418 46.0195 618.172 51.293 618.797 58.1289H599.227C599.109 54.7695 597.039 53.0898 593.016 53.0898C589.227 53.0898 587.332 54.5742 587.332 57.543C587.332 59.7695 589.09 61.5859 592.605 62.9922C593.777 63.5 595.555 64.1055 597.938 64.8086C598.133 64.8477 598.387 64.9062 598.699 64.9844L604.09 66.6836C606.473 67.4648 608.523 68.2852 610.242 69.1445C612.352 70.1992 614.129 71.4102 615.574 72.7773C619.09 76.0195 620.848 80.2969 620.848 85.6094ZM702 37.0938V106H679.324V37.0938H661.805V17.1719H719.402V37.0938H702ZM783.152 73.4805C783.152 75.3945 782.996 77.1523 782.684 78.7539H732.762C734.012 87.1523 739.207 91.3516 748.348 91.3516C753.113 91.3516 757.156 89.2812 760.477 85.1406H780.867C777.898 92.0547 773.641 97.5625 768.094 101.664C762.195 106 755.613 108.168 748.348 108.168C738.621 108.168 730.32 104.711 723.445 97.7969C716.531 90.9219 713.074 82.6211 713.074 72.8945C713.074 63.1289 716.453 54.75 723.211 47.7578C730.047 40.6484 738.309 37.0938 747.996 37.0938C758.074 37.0938 766.492 40.6484 773.25 47.7578C779.852 54.75 783.152 63.3242 783.152 73.4805ZM763.23 65.3359C761.59 57.7188 756.551 53.9102 748.113 53.9102C739.676 53.9102 734.637 57.7188 732.996 65.3359H763.23ZM844.207 85.6094C844.207 92.6797 841.375 98.3242 835.711 102.543C830.594 106.371 824.383 108.285 817.078 108.285C809.812 108.285 803.738 106.43 798.855 102.719C793.66 98.7734 790.691 93.2656 789.949 86.1953H809.754C810.34 90.2969 812.859 92.3477 817.312 92.3477C819.031 92.3477 820.574 91.918 821.941 91.0586C823.504 90.082 824.285 88.7734 824.285 87.1328C824.285 85.0625 823.23 83.3633 821.121 82.0352L818.191 80.6289L806.648 76.4688C802 74.7891 798.367 72.6992 795.75 70.1992C792.43 67.0742 790.77 63.3633 790.77 59.0664C790.77 52.4648 793.465 47.0742 798.855 42.8945C803.816 39.0273 809.734 37.0938 816.609 37.0938C823.602 37.0938 829.363 38.832 833.895 42.3086C838.777 46.0195 841.531 51.293 842.156 58.1289H822.586C822.469 54.7695 820.398 53.0898 816.375 53.0898C812.586 53.0898 810.691 54.5742 810.691 57.543C810.691 59.7695 812.449 61.5859 815.965 62.9922C817.137 63.5 818.914 64.1055 821.297 64.8086C821.492 64.8477 821.746 64.9062 822.059 64.9844L827.449 66.6836C829.832 67.4648 831.883 68.2852 833.602 69.1445C835.711 70.1992 837.488 71.4102 838.934 72.7773C842.449 76.0195 844.207 80.2969 844.207 85.6094ZM878.016 54.4961V106H858.094V54.4961H848.25V39.3789H858.094V17.1719H878.016V39.3789H887.625V54.4961H878.016ZM937.957 106V69.6133C937.957 65.2773 937.332 62.0547 936.082 59.9453C934.48 57.2109 931.629 55.8438 927.527 55.8438C923.191 55.8438 920.125 57.1719 918.328 59.8281C916.844 62.0156 916.102 65.3359 916.102 69.7891V106H896.18V39.3789H914.754V46.4688H915.047C918.875 40.2187 924.91 37.0938 933.152 37.0938C939.91 37.0938 945.594 39.0273 950.203 42.8945C953.094 45.3164 955.164 48.5781 956.414 52.6797C957.391 55.8828 957.879 59.7695 957.879 64.3398V106H937.957ZM1038.5 73.4805C1038.5 75.3945 1038.35 77.1523 1038.04 78.7539H988.113C989.363 87.1523 994.559 91.3516 1003.7 91.3516C1008.46 91.3516 1012.51 89.2812 1015.83 85.1406H1036.22C1033.25 92.0547 1028.99 97.5625 1023.45 101.664C1017.55 106 1010.96 108.168 1003.7 108.168C993.973 108.168 985.672 104.711 978.797 97.7969C971.883 90.9219 968.426 82.6211 968.426 72.8945C968.426 63.1289 971.805 54.75 978.562 47.7578C985.398 40.6484 993.66 37.0938 1003.35 37.0938C1013.43 37.0938 1021.84 40.6484 1028.6 47.7578C1035.2 54.75 1038.5 63.3242 1038.5 73.4805ZM1018.58 65.3359C1016.94 57.7188 1011.9 53.9102 1003.46 53.9102C995.027 53.9102 989.988 57.7188 988.348 65.3359H1018.58ZM1073.48 54.4961V106H1053.56V54.4961H1043.72V39.3789H1053.56V17.1719H1073.48V39.3789H1083.09V54.4961H1073.48Z" fill="#20B486"/>
<defs>
<linearGradient id="paint0_linear_7685_9370" x1="53.0908" y1="59.9997" x2="96.6032" y2="59.9997" gradientUnits="userSpaceOnUse">
<stop stop-color="#07806D"/>
<stop offset="1" stop-color="#035663"/>
</linearGradient>
<clipPath id="clip0_7685_9370">
<rect width="97" height="120" fill="white"/>
</clipPath>
</defs>
</svg>

<svg xmlns="http://www.w3.org/2000/svg" width="1085" height="120" fill="none"><g clip-path="url(#a)"><path fill="#3C9" d="M43.512 120 .147 94.997c3.39-1.178 3.926-3.511 3.914-6.427-.078-19.105-.06-38.21-.014-57.316.006-2.758-.405-5.114-4.047-6.18 6.643-3.83 12.78-7.366 19.477-11.226v5.465c.016 22.86.016 45.752.016 68.596-.025 3.488.893 5.304 4.023 7.053 2.529 1.413 2.908 1.543 4.842 2.628 0-1.568.01-2.524 0-3.633 0-27.3.054-54.212 0-82.022-.006-2.311.52-3.722 2.646-4.822C35.127 4.98 39.091 2.54 43.512 0v120Z"/><path fill="url(#b)" d="m53.09 120 43.366-25.003c-3.39-1.178-3.926-3.511-3.914-6.427.078-19.105.06-38.21.014-57.316-.006-2.758.405-5.114 4.047-6.18-6.643-3.83-12.78-7.366-19.477-11.226v5.465c-.016 22.86-.016 45.752-.016 68.596.025 3.488-.893 5.304-4.023 7.053-2.528 1.413-2.908 1.543-4.842 2.628 0-1.568-.01-2.524 0-3.633 0-27.3-.053-54.212 0-82.022.007-2.311-.52-3.722-2.646-4.822C61.476 4.98 57.512 2.54 53.09 0v120Z"/><path fill="#fff" d="m60.659 8.456 1.701 3.449 3.804.553-2.752 2.684.65 3.79-3.403-1.79-3.402 1.79.65-3.79-2.753-2.684 3.804-.553 1.7-3.449Z"/></g><path fill="#20B486" d="m180.223 106-33.809-54.023-.293.117.645 53.906h-21.739V17.172h19.571l34.336 55.84.234-.235-.996-55.605h21.738V106h-19.687Zm101.484-32.52c0 1.914-.156 3.672-.469 5.274h-49.922c1.25 8.398 6.446 12.598 15.586 12.598 4.766 0 8.809-2.07 12.129-6.211h20.391c-2.969 6.914-7.227 12.421-12.774 16.523-5.898 4.336-12.48 6.504-19.746 6.504-9.726 0-18.027-3.457-24.902-10.371-6.914-6.875-10.371-15.176-10.371-24.903 0-9.765 3.379-18.144 10.137-25.136 6.836-7.11 15.097-10.664 24.785-10.664 10.078 0 18.496 3.554 25.254 10.664 6.601 6.992 9.902 15.566 9.902 25.723Zm-19.922-8.144c-1.64-7.617-6.68-11.426-15.117-11.426-8.438 0-13.477 3.809-15.117 11.426h30.234Zm103.008 6.973c0 10.273-3.008 18.77-9.023 25.488-6.25 6.992-14.454 10.488-24.61 10.488-3.789 0-7.383-.742-10.781-2.226-3.906-1.719-6.66-4.102-8.262-7.149h-.234V106h-19.102V17.172h19.922v27.48c4.727-5.039 11.172-7.558 19.336-7.558 4.649 0 9.316 1.093 14.004 3.281 6.25 2.89 10.977 7.227 14.18 13.008 3.047 5.43 4.57 11.738 4.57 18.926Zm-19.922.351c0-4.648-1.562-8.613-4.687-11.894-3.164-3.36-7.051-5.04-11.661-5.04-4.687 0-8.632 1.622-11.835 4.864-3.126 3.242-4.688 7.226-4.688 11.953 0 4.805 1.484 8.848 4.453 12.129 3.047 3.32 6.953 4.98 11.719 4.98 4.766 0 8.75-1.64 11.953-4.921 3.164-3.282 4.746-7.305 4.746-12.07ZM418.816 106v-7.09h-.234c-1.641 3.399-4.023 5.84-7.148 7.324-2.696 1.289-6.075 1.934-10.137 1.934-8.477 0-15-2.793-19.57-8.379-2.5-3.125-4.161-6.367-4.981-9.727-.664-2.539-.996-6.152-.996-10.84V39.38h19.922v36.855c0 4.297.664 7.461 1.992 9.493 1.641 2.539 4.531 3.808 8.672 3.808 7.617 0 11.426-4.512 11.426-13.535V39.379h19.922V106h-18.868Zm33.223 0V17.172h19.922V106h-19.922Zm84.375 0v-7.207h-.234c-1.68 3.203-4.473 5.645-8.379 7.324-3.36 1.445-7.051 2.168-11.074 2.168-10.039 0-18.184-3.457-24.434-10.37-6.016-6.72-9.023-15.138-9.023-25.255 0-9.96 3.066-18.32 9.199-25.078 6.367-6.992 14.453-10.488 24.258-10.488 3.984 0 7.656.742 11.015 2.226 3.75 1.64 6.563 4.024 8.438 7.149h.234v-7.09h19.922V106h-19.922Zm0-33.34c0-4.883-1.582-8.926-4.746-12.129-3.164-3.203-7.168-4.804-12.012-4.804-4.804 0-8.769 1.68-11.894 5.039-3.047 3.242-4.571 7.285-4.571 12.128 0 4.649 1.582 8.594 4.747 11.837 3.242 3.28 7.187 4.921 11.835 4.921 4.805 0 8.789-1.62 11.954-4.863 3.125-3.242 4.687-7.285 4.687-12.129Zm84.434 12.95c0 7.07-2.832 12.714-8.496 16.933-5.118 3.828-11.329 5.742-18.633 5.742-7.266 0-13.34-1.855-18.223-5.566-5.195-3.946-8.164-9.453-8.906-16.524h19.805c.585 4.102 3.105 6.153 7.558 6.153 1.719 0 3.262-.43 4.629-1.29 1.563-.976 2.344-2.285 2.344-3.925 0-2.07-1.055-3.77-3.164-5.098l-2.93-1.406-11.543-4.16c-4.648-1.68-8.281-3.77-10.898-6.27-3.321-3.125-4.981-6.836-4.981-11.133 0-6.601 2.695-11.992 8.086-16.172 4.961-3.867 10.879-5.8 17.754-5.8 6.992 0 12.754 1.738 17.285 5.215 4.883 3.71 7.637 8.984 8.262 15.82h-19.57c-.118-3.36-2.188-5.04-6.211-5.04-3.789 0-5.684 1.485-5.684 4.454 0 2.227 1.758 4.043 5.273 5.45 1.172.507 2.95 1.113 5.333 1.816.195.039.449.097.761.175l5.391 1.7c2.383.78 4.433 1.601 6.152 2.46 2.11 1.055 3.887 2.266 5.332 3.633 3.516 3.242 5.274 7.52 5.274 12.832ZM702 37.093V106h-22.676V37.094h-17.519V17.172h57.597v19.922H702Zm81.152 36.387c0 1.913-.156 3.671-.468 5.273h-49.922c1.25 8.398 6.445 12.598 15.586 12.598 4.765 0 8.808-2.07 12.129-6.211h20.39c-2.969 6.914-7.226 12.421-12.773 16.523-5.899 4.336-12.481 6.504-19.746 6.504-9.727 0-18.028-3.457-24.903-10.371-6.914-6.875-10.371-15.176-10.371-24.903 0-9.765 3.379-18.144 10.137-25.136 6.836-7.11 15.098-10.664 24.785-10.664 10.078 0 18.496 3.554 25.254 10.664 6.602 6.992 9.902 15.566 9.902 25.723Zm-19.922-8.145c-1.64-7.617-6.679-11.426-15.117-11.426-8.437 0-13.476 3.809-15.117 11.426h30.234Zm80.977 20.273c0 7.07-2.832 12.715-8.496 16.934-5.117 3.828-11.328 5.742-18.633 5.742-7.266 0-13.34-1.855-18.223-5.566-5.195-3.946-8.164-9.453-8.906-16.524h19.805c.586 4.102 3.105 6.153 7.558 6.153 1.719 0 3.262-.43 4.629-1.29 1.563-.976 2.344-2.285 2.344-3.925 0-2.07-1.055-3.77-3.164-5.098l-2.93-1.406-11.543-4.16c-4.648-1.68-8.281-3.77-10.898-6.27-3.32-3.125-4.98-6.836-4.98-11.133 0-6.601 2.695-11.992 8.085-16.172 4.961-3.867 10.879-5.8 17.754-5.8 6.993 0 12.754 1.738 17.286 5.215 4.882 3.71 7.636 8.984 8.261 15.82h-19.57c-.117-3.36-2.188-5.04-6.211-5.04-3.789 0-5.684 1.485-5.684 4.454 0 2.227 1.758 4.043 5.274 5.45 1.172.507 2.949 1.113 5.332 1.816.195.039.449.097.762.175l5.39 1.7c2.383.78 4.434 1.601 6.153 2.46 2.109 1.055 3.886 2.266 5.332 3.633 3.515 3.242 5.273 7.52 5.273 12.832Zm33.809-31.113V106h-19.922V54.496h-9.844V39.38h9.844V17.172h19.922v22.207h9.609v15.117h-9.609ZM937.957 106V69.613c0-4.336-.625-7.558-1.875-9.668-1.602-2.734-4.453-4.101-8.555-4.101-4.336 0-7.402 1.328-9.199 3.984-1.484 2.188-2.226 5.508-2.226 9.961V106H896.18V39.379h18.574v7.09h.293c3.828-6.25 9.863-9.375 18.105-9.375 6.758 0 12.442 1.933 17.051 5.8 2.891 2.422 4.961 5.684 6.211 9.786.977 3.203 1.465 7.09 1.465 11.66V106h-19.922ZM1038.5 73.48c0 1.914-.15 3.672-.46 5.274h-49.927c1.25 8.398 6.446 12.598 15.587 12.598 4.76 0 8.81-2.07 12.13-6.211h20.39c-2.97 6.914-7.23 12.421-12.77 16.523-5.9 4.336-12.49 6.504-19.75 6.504-9.727 0-18.028-3.457-24.903-10.371-6.914-6.875-10.371-15.176-10.371-24.903 0-9.765 3.379-18.144 10.136-25.136 6.836-7.11 15.098-10.664 24.788-10.664 10.08 0 18.49 3.554 25.25 10.664 6.6 6.992 9.9 15.566 9.9 25.723Zm-19.92-8.144c-1.64-7.617-6.68-11.426-15.12-11.426-8.433 0-13.472 3.809-15.112 11.426h30.232Zm54.9-10.84V106h-19.92V54.496h-9.84V39.38h9.84V17.172h19.92v22.207h9.61v15.117h-9.61Z"/><defs><linearGradient id="b" x1="53.091" x2="96.603" y1="60" y2="60" gradientUnits="userSpaceOnUse"><stop stop-color="#07806D"/><stop offset="1" stop-color="#035663"/></linearGradient><clipPath id="a"><path fill="#fff" d="M0 0h97v120H0z"/></clipPath></defs></svg>
